X:1
T: Moll in the Wad [A]
L: 1/8
M: 6/8
S: Cranford - Winston Fitzgerald
Z: Andrew Kuntz <aikuntz:aol.com> irtrad-l 2000-04-04
K: Bb
g \
| fBB (BAB) | fBB gBB | fBB (BAB) | cAF FAc \
| fBB (BAB) | fBB gBB | bag fed |1 cAF F2 :|2 cBA GFD ||
|: B3 BFD | BFD B2c | dcB BAB | cAF FGA \
| BFD BFD | BFD B2c | dcB ABc |1 B3 Bdc :|2 B3 B3 ||
K:G
|| gdB gdB | gdB d2a | _bag gfg | afd def \
| gdB gdB | gdB g2 a | _bag fga |1 g3 G2 a :|2 g3 {cd}=e2 |]
